X: 12664
T: Fart That Woke The Baby, The
R: slip jig
M: 9/8
K: Dmajor
|DEF DEF AGF|DEF DEF E2A,|DEF DEF AGF|A,A,A, A,B,C D2A,|
DEF DEF AGF|DEF DEF E2A,|DEF DEF AGF|A,A,A, A,B,C D2 e|
f2d f2d f2G|AdG AdG A2e|f2d f2d f2G|ABA ABc d2e|
f2d f2d f2G|AdG AdG A2e|f2d f2d f2G|ABA ABc d2A,|

